src/assets/images/team/viru.svg

<svg width="228" height="304" viewBox="0 0 228 304" fill="none" xmlns="http://www.w3.org/2000/svg">
<rect width="228" height="303" rx="26" fill="#FDFDFD"/>
<path d="M67.1128 303.739C67.8804 298.706 68.648 293.673 69.4156 288.64C69.9237 285.307 70.482 281.85 72.5088 279.038C74.8209 275.83 78.7377 273.9 82.6595 272.506C85.8252 271.38 89.0568 270.275 92.2519 269.258C93.959 268.715 95.6132 267.818 97.263 267.135C98.9767 266.427 100.47 265.822 102.197 265.143H122.505C124.233 265.822 125.725 266.427 127.439 267.135C129.089 267.818 130.743 268.715 132.45 269.258C135.645 270.275 138.876 271.38 142.043 272.506C145.964 273.9 149.881 275.83 152.193 279.038C154.22 281.85 154.778 285.307 155.287 288.64C156.054 293.673 156.822 298.706 157.589 303.739" fill="#0CC7BB"/>
<path d="M100.868 252.249C103.573 257.791 103.45 264.259 100.651 269.763C100.276 270.499 99.8472 271.227 99.2251 271.807C99.2251 271.807 110.284 283.54 125.517 271.807C125.694 271.671 125.099 271.197 124.973 271.044C124.75 270.775 124.554 270.488 124.386 270.188C122.84 267.437 122.04 264.407 121.959 261.306C121.876 258.158 122.537 254.989 123.941 252.11" fill="white"/>
<path d="M100.66 252.302C103.301 258.149 103.757 266.467 99.0727 271.668C98.9946 271.755 98.9896 271.861 99.0727 271.947C106.42 279.594 117.807 277.756 125.67 271.947C125.724 271.907 125.751 271.814 125.725 271.755C125.455 271.118 124.954 270.685 124.572 270.089C123.338 268.166 122.716 265.763 122.401 263.583C121.831 259.654 122.504 255.816 124.149 252.162C124.255 251.928 123.837 251.826 123.733 252.058C122.236 255.382 121.502 258.865 121.807 262.465C121.938 264.012 122.251 265.558 122.752 267.039C123.125 268.141 124.704 270.115 124.787 271.144C124.901 272.578 121.898 274.023 120.667 274.635C118.735 275.596 116.685 276.29 114.513 276.612C111.428 277.069 108.343 276.695 105.475 275.565C103.68 274.857 101.998 273.888 100.535 272.702C99.2569 271.666 99.5242 271.826 100.44 270.59C104.254 265.443 103.524 257.612 101.077 252.196C100.973 251.966 100.555 252.067 100.66 252.302Z" fill="#231F20"/>
<path d="M157.763 303.696C156.939 298.293 156.192 292.874 155.287 287.483C154.586 283.307 153.491 279.338 149.922 276.429C146.84 273.916 142.91 272.617 139.106 271.302C133.496 269.361 128.098 267.181 122.596 265.001C122.385 264.918 122.202 265.201 122.414 265.285C126.559 266.926 130.553 268.796 134.804 270.196C139.434 271.721 144.466 273.081 148.454 275.789C153.151 278.979 154.328 283.673 155.112 288.685C155.899 293.715 156.647 298.75 157.415 303.783C157.448 303.991 157.795 303.902 157.763 303.696Z" fill="#231F20"/>
<path d="M102.106 265C96.8007 267.101 91.6103 269.233 86.1949 271.093C82.1986 272.466 78.0181 273.787 74.7793 276.427C71.3914 279.189 70.1967 282.936 69.5086 286.922C68.5468 292.496 67.7907 298.106 66.9385 303.694C66.907 303.901 67.2539 303.99 67.2854 303.781C68.053 298.748 68.7955 293.712 69.5882 288.682C70.378 283.672 71.5441 278.98 76.2464 275.787C80.2363 273.078 85.2661 271.718 89.8967 270.193C94.1475 268.794 98.1409 266.925 102.286 265.283C102.5 265.2 102.316 264.917 102.106 265Z" fill="#231F20"/>
<path d="M99.2254 271.808C99.2254 271.808 101.218 269.251 101.484 267.848C101.586 267.755 98.5073 267.866 96.937 269.136C96.937 269.136 99.8798 276.042 111.999 277.022C112.17 277.02 120.734 277.885 128.655 269.177C128.655 269.177 126.183 267.298 123.111 267.736C123.196 267.644 125.518 271.808 125.518 271.808C125.518 271.808 113.475 283.343 99.2254 271.808Z" fill="#231F20"/>
<path opacity="0.3" d="M128.012 245.398C127.437 246.58 126.861 247.762 126.285 248.944C126.248 249.02 126.372 249.087 126.41 249.01C126.985 247.828 127.562 246.646 128.137 245.464C128.174 245.388 128.05 245.321 128.012 245.398Z" fill="#EFA841"/>
<path opacity="0.3" d="M111.671 237.3C111.004 237.416 110.324 237.416 109.661 237.278C109.398 237.224 109.119 237.157 108.876 237.045C108.428 236.836 108.466 236.507 108.532 236.117C108.722 235.013 108.97 233.918 109.21 232.822C109.684 230.65 110.146 228.468 110.24 226.25C110.244 226.165 110.1 226.165 110.096 226.25C109.986 228.838 109.372 231.371 108.828 233.904C108.695 234.525 108.567 235.147 108.451 235.77C108.383 236.139 108.197 236.648 108.511 236.965C108.837 237.294 109.487 237.394 109.939 237.459C110.53 237.545 111.123 237.528 111.709 237.425C111.8 237.41 111.761 237.283 111.671 237.3Z" fill="#EFA841"/>
<path d="M127.245 214.063C130.665 218.938 131.262 224.49 130.952 230.152C130.639 235.885 129.912 241.698 127.124 246.919C124.707 251.446 120.93 255.544 116.014 257.94C112.458 259.674 109.932 258.881 106.768 256.967C104.026 255.307 101.711 253.111 99.838 250.654C96.2423 245.937 94.6469 240.526 94.0219 234.871C93.4493 229.685 93.025 224.258 94.6841 219.194C96.8973 212.439 102.468 208.317 110.105 207.63C116.905 207.019 123.137 208.905 127.245 214.063C127.407 214.267 127.782 214.07 127.618 213.865C122.232 207.101 111.139 204.962 102.956 208.911C92.5849 213.916 92.5699 225.636 93.5897 234.871C94.5974 243.998 98.7328 253.313 107.879 258.047C108.937 258.594 111.059 259.77 112.338 259.751C114.392 259.719 117.31 257.802 118.864 256.764C122.718 254.192 125.706 250.614 127.718 246.684C130.364 241.512 131.078 235.794 131.384 230.152C131.694 224.434 131.067 218.781 127.618 213.865C127.469 213.652 127.095 213.849 127.245 214.063Z" fill="#231F20"/>
<path d="M117.335 218.263L117.448 220.292C117.448 220.292 124.685 220.962 124.685 220.847C124.685 220.732 124.685 218.916 124.685 218.916L117.335 218.263Z" fill="#231F20"/>
<path d="M110.231 225.747C109.872 227.631 109.514 229.516 109.156 231.399C108.878 232.861 108.141 234.741 108.238 236.235C108.352 237.975 110.997 237.462 112.389 237.379C112.665 237.363 112.668 236.969 112.389 236.985C110.844 237.077 109.308 237.464 108.827 235.418C108.642 234.628 109.252 233.186 109.407 232.374C109.82 230.2 110.234 228.025 110.647 225.851C110.694 225.604 110.278 225.497 110.231 225.747Z" fill="#231F20"/>
<path d="M106.837 246.089C110.988 246.622 115.583 246.406 119.117 244.177C119.344 244.034 119.129 243.692 118.899 243.837C115.476 245.996 110.981 246.227 106.952 245.71C106.68 245.675 106.562 246.055 106.837 246.089Z" fill="#231F20"/>
<path d="M110.584 248.384C111.343 248.377 112.063 248.199 112.722 247.856C112.964 247.729 112.746 247.389 112.505 247.516C111.909 247.826 111.27 247.984 110.584 247.991C110.306 247.993 110.305 248.387 110.584 248.384Z" fill="#231F20"/>
<path d="M93.4243 227.448C91.9407 226.179 89.5333 225.52 87.8569 226.965C86.1397 228.446 86.5898 231.405 87.1323 233.237C87.7458 235.309 88.8811 238.378 91.2606 239.294C92.7585 239.872 94.2915 239.438 94.5287 237.881C94.5667 237.634 94.1503 237.526 94.1123 237.777C92.0195 238.992 90.5596 238.912 89.7318 237.537C89.3735 237.154 89.0825 236.732 88.8596 236.271C88.3178 235.339 87.8519 234.168 87.5495 233.132C87.1538 231.779 86.9188 230.311 87.275 228.926C87.9308 226.376 91.0068 225.921 93.119 227.727C93.3218 227.899 93.6278 227.621 93.4243 227.448Z" fill="#231F20"/>
<path d="M93.5261 232.034C92.4245 231.107 89.8745 229.876 88.8833 231.551C88.7514 231.774 89.1241 231.973 89.2567 231.75C90.0802 230.358 92.3421 231.572 93.2208 232.312C93.4243 232.484 93.7311 232.207 93.5261 232.034Z" fill="#231F20"/>
<path d="M91.6741 231.112C90.6113 231.905 90.3798 233.205 91.0879 234.272C91.2319 234.488 91.6053 234.291 91.4613 234.073C90.8456 233.146 91.0628 232.075 91.9794 231.392C92.1952 231.231 91.8877 230.954 91.6741 231.112Z" fill="#231F20"/>
<path d="M131.548 227.726C133.518 226.042 136.752 226.472 137.392 228.925C137.745 230.28 137.487 231.802 137.117 233.131C136.822 234.194 136.357 235.311 135.807 236.271C135.675 236.497 135.543 236.724 135.41 236.95C134.531 238.74 132.912 239.015 130.555 237.777C130.517 237.526 130.1 237.633 130.138 237.881C130.373 239.421 131.882 239.869 133.381 239.304C135.759 238.408 136.94 235.296 137.535 233.237C138.071 231.382 138.514 228.5 136.832 226.981C135.187 225.494 132.716 226.189 131.243 227.447C131.039 227.621 131.345 227.899 131.548 227.726Z" fill="#231F20"/>
<path d="M131.446 232.312C132.322 231.575 134.586 230.357 135.41 231.75C135.542 231.972 135.916 231.774 135.783 231.551C134.792 229.877 132.24 231.108 131.14 232.034C130.936 232.206 131.242 232.484 131.446 232.312Z" fill="#231F20"/>
<path d="M132.687 231.391C133.604 232.074 133.82 233.146 133.206 234.073C133.062 234.29 133.435 234.488 133.578 234.271C134.287 233.204 134.055 231.904 132.992 231.112C132.779 230.953 132.472 231.231 132.687 231.391Z" fill="#231F20"/>
<path d="M118.669 229.954C119.578 229.954 120.315 229.282 120.315 228.454C120.315 227.625 119.578 226.953 118.669 226.953C117.761 226.953 117.024 227.625 117.024 228.454C117.024 229.282 117.761 229.954 118.669 229.954Z" fill="#231F20"/>
<path d="M105.436 218.263L105.322 220.292C105.322 220.292 98.0859 220.962 98.0859 220.847C98.0859 220.732 98.0859 218.916 98.0859 218.916L105.436 218.263Z" fill="#231F20"/>
<path d="M103.981 229.954C104.889 229.954 105.626 229.282 105.626 228.454C105.626 227.625 104.889 226.953 103.981 226.953C103.072 226.953 102.335 227.625 102.335 228.454C102.335 229.282 103.072 229.954 103.981 229.954Z" fill="#231F20"/>
<path d="M135.383 215.705C134.892 214.267 133.601 212.98 131.966 212.773C130.393 212.574 130.475 211.703 130.243 210.41C129.791 207.887 128.368 205.556 126.454 203.688C124.539 201.821 122.149 200.398 119.616 199.303C118.457 198.802 117.256 198.364 116.001 198.123C114.101 197.757 112.131 197.85 110.197 198.009C108.042 198.186 105.866 198.45 103.863 199.195C101.859 199.939 100.022 201.216 99.0685 202.988C97.6466 205.63 98.8277 208.378 100.918 210.316L100.92 210.317C101.922 209.621 103.01 209.028 104.164 208.57C105.871 207.893 107.753 207.638 109.593 207.433C111.495 207.221 113.428 207.164 115.334 207.376C115.887 207.437 116.421 207.581 116.965 207.649C118.478 207.838 119.945 208.28 121.306 208.908C123.788 210.055 125.929 211.814 127.491 213.909C127.693 214.179 127.886 214.455 128.071 214.735C130.65 218.648 131.339 223.147 131.307 227.66L131.481 227.759C133.323 225.51 134.642 222.906 135.326 220.168C135.693 218.7 135.874 217.142 135.383 215.705Z" fill="#231F20"/>
<path d="M95.0606 209.582C94.0436 210.464 93.4351 211.666 92.9843 212.878C91.8713 215.872 91.5875 219.12 92.1673 222.236C92.5364 224.221 93.2495 226.168 93.2681 228.18C92.8288 224.942 93.5233 221.754 94.6722 218.663C95.677 215.96 97.3505 213.514 100.983 210.415C101.109 210.308 99.1473 208.606 98.6241 208.451C97.4566 208.108 95.8705 208.88 95.0606 209.582Z" fill="#231F20"/>
<path d="M85.4781 303.668C85.4781 299.893 85.4781 296.117 85.4781 292.342C85.4781 292.173 85.1899 292.172 85.1899 292.342C85.1899 296.117 85.1899 299.893 85.1899 303.668C85.1907 303.837 85.4781 303.837 85.4781 303.668Z" fill="#231F20"/>
<path d="M137.914 303.668C137.914 299.893 137.914 296.117 137.914 292.342C137.914 292.173 137.625 292.172 137.625 292.342C137.625 296.117 137.625 299.893 137.625 303.668C137.625 303.837 137.914 303.837 137.914 303.668Z" fill="#231F20"/>
<path d="M100.942 252.332C100.942 252.332 110.007 272.774 122.19 256.797L122.396 256.918C122.401 256.771 122.515 253.482 124.25 251.731C124.264 251.711 121.046 255.322 117.321 257.136C117.338 257.126 112.713 259.865 111.697 259.561C111.697 259.561 104.07 257.088 100.942 252.332Z" fill="#231F20"/>
<path d="M128.05 238.989C128.731 239.207 129.469 239.275 130.183 239.185C130.295 238.041 130.408 236.896 130.52 235.751C131.018 230.653 131.518 225.533 131.175 220.424C130.995 220.99 130.745 221.566 130.595 222.133C130.455 222.657 130.538 223.247 130.533 223.79C130.522 225.049 130.464 226.307 130.358 227.562C130.148 230.054 129.752 232.533 129.174 234.977C129.095 235.314 128.081 238.999 128.05 238.989Z" fill="#231F20"/>
<path d="M96.5501 238.989C95.8692 239.207 95.131 239.275 94.4164 239.185C94.3046 238.041 94.1921 236.896 94.0803 235.751C93.5815 230.653 93.0819 225.533 93.4245 220.424C93.6051 220.99 93.8545 221.566 94.005 222.133C94.1448 222.657 94.0617 223.247 94.0667 223.79C94.0774 225.049 94.1362 226.307 94.2423 227.562C94.4523 230.054 94.8479 232.533 95.4256 234.977C95.5051 235.314 96.5192 238.999 96.5501 238.989Z" fill="#231F20"/>
</svg>

<svg xmlns="http://www.w3.org/2000/svg" width="228" height="304" fill="none"><rect width="228" height="303" fill="#FDFDFD" rx="26"/><path fill="#0CC7BB" d="m67.113 303.739 2.303-15.099c.508-3.333 1.066-6.79 3.093-9.602 2.312-3.208 6.229-5.138 10.15-6.532a304 304 0 0 1 9.593-3.248c1.707-.543 3.361-1.44 5.011-2.123a296 296 0 0 1 4.934-1.992h20.308c1.728.679 3.22 1.284 4.934 1.992 1.65.683 3.304 1.58 5.011 2.123a305 305 0 0 1 9.593 3.248c3.921 1.394 7.838 3.324 10.15 6.532 2.027 2.812 2.585 6.269 3.094 9.602l2.302 15.099"/><path fill="#fff" d="M100.868 252.249c2.705 5.542 2.582 12.01-.217 17.514-.375.736-.804 1.464-1.426 2.044 0 0 11.059 11.733 26.292 0 .177-.136-.418-.61-.544-.763a5.7 5.7 0 0 1-.587-.856c-1.546-2.751-2.346-5.781-2.427-8.882a19.8 19.8 0 0 1 1.982-9.196"/><path fill="#231F20" d="M100.66 252.302c2.641 5.847 3.097 14.165-1.587 19.366-.078.087-.083.193 0 .279 7.347 7.647 18.734 5.809 26.597 0 .054-.04.081-.133.055-.192-.27-.637-.771-1.07-1.153-1.666-1.234-1.923-1.856-4.326-2.171-6.506-.57-3.929.103-7.767 1.748-11.421.106-.234-.312-.336-.416-.104-1.497 3.324-2.231 6.807-1.926 10.407.131 1.547.444 3.093.945 4.574.373 1.102 1.952 3.076 2.035 4.105.114 1.434-2.889 2.879-4.12 3.491-1.932.961-3.982 1.655-6.154 1.977a17.53 17.53 0 0 1-9.038-1.047 18.8 18.8 0 0 1-4.94-2.863c-1.278-1.036-1.01-.876-.095-2.112 3.814-5.147 3.084-12.978.637-18.394-.104-.23-.522-.129-.417.106"/><path fill="#231F20" d="M157.763 303.696c-.824-5.403-1.571-10.822-2.476-16.213-.701-4.176-1.796-8.145-5.365-11.054-3.082-2.513-7.012-3.812-10.816-5.127-5.61-1.941-11.008-4.121-16.51-6.301-.211-.083-.394.2-.182.284 4.145 1.641 8.139 3.511 12.39 4.911 4.63 1.525 9.662 2.885 13.65 5.593 4.697 3.19 5.874 7.884 6.658 12.896.787 5.03 1.535 10.065 2.303 15.098.033.208.38.119.348-.087M102.106 265c-5.305 2.101-10.496 4.233-15.911 6.093-3.996 1.373-8.177 2.694-11.416 5.334-3.388 2.762-4.582 6.509-5.27 10.495-.962 5.574-1.718 11.184-2.57 16.772-.032.207.315.296.346.087.768-5.033 1.51-10.069 2.303-15.099.79-5.01 1.956-9.702 6.658-12.895 3.99-2.709 9.02-4.069 13.65-5.594 4.251-1.399 8.245-3.268 12.39-4.91.214-.083.03-.366-.18-.283"/><path fill="#231F20" d="M99.225 271.808s1.993-2.557 2.259-3.96c.102-.093-2.977.018-4.547 1.288 0 0 2.943 6.906 15.062 7.886.171-.002 8.735.863 16.656-7.845 0 0-2.472-1.879-5.544-1.441.085-.092 2.407 4.072 2.407 4.072s-12.043 11.535-26.293 0"/><path fill="#EFA841" d="m128.012 245.398-1.727 3.546c-.037.076.087.143.125.066l1.727-3.546c.037-.076-.087-.143-.125-.066M111.671 237.3a5.4 5.4 0 0 1-2.01-.022 3.7 3.7 0 0 1-.785-.233c-.448-.209-.41-.538-.344-.928.19-1.104.438-2.199.678-3.295.474-2.172.936-4.354 1.03-6.572.004-.085-.14-.085-.144 0-.11 2.588-.724 5.121-1.268 7.654a71 71 0 0 0-.377 1.866c-.068.369-.254.878.06 1.195.326.329.976.429 1.428.494a5.6 5.6 0 0 0 1.77-.034c.091-.015.052-.142-.038-.125" opacity=".3"/><path fill="#231F20" d="M127.245 214.063c3.42 4.875 4.017 10.427 3.707 16.089-.313 5.733-1.04 11.546-3.828 16.767-2.417 4.527-6.194 8.625-11.11 11.021-3.556 1.734-6.082.941-9.246-.973-2.742-1.66-5.057-3.856-6.93-6.313-3.596-4.717-5.191-10.128-5.816-15.783-.573-5.186-.997-10.613.662-15.677 2.213-6.755 7.784-10.877 15.421-11.564 6.8-.611 13.032 1.275 17.14 6.433.162.204.537.007.373-.198-5.386-6.764-16.479-8.903-24.662-4.954-10.371 5.005-10.386 16.725-9.366 25.96 1.007 9.127 5.143 18.442 14.289 23.176 1.058.547 3.18 1.723 4.459 1.704 2.054-.032 4.972-1.949 6.526-2.987 3.854-2.572 6.842-6.15 8.854-10.08 2.646-5.172 3.36-10.89 3.666-16.532.31-5.718-.317-11.371-3.766-16.287-.149-.213-.523-.016-.373.198"/><path fill="#231F20" d="m117.335 218.263.113 2.029s7.237.67 7.237.555v-1.931zM110.231 225.747l-1.075 5.652c-.278 1.462-1.015 3.342-.918 4.836.114 1.74 2.759 1.227 4.151 1.144.276-.016.279-.41 0-.394-1.545.092-3.081.479-3.562-1.567-.185-.79.425-2.232.58-3.044l1.24-6.523c.047-.247-.369-.354-.416-.104M106.837 246.089c4.151.533 8.746.317 12.28-1.912.227-.143.012-.485-.218-.34-3.423 2.159-7.918 2.39-11.947 1.873-.272-.035-.39.345-.115.379M110.584 248.384a4.7 4.7 0 0 0 2.138-.528c.242-.127.024-.467-.217-.34a4.2 4.2 0 0 1-1.921.475c-.278.002-.279.396 0 .393M93.424 227.448c-1.483-1.269-3.89-1.928-5.567-.483-1.717 1.481-1.267 4.44-.725 6.272.614 2.072 1.75 5.141 4.129 6.057 1.498.578 3.03.144 3.268-1.413.038-.247-.379-.355-.417-.104q-3.139 1.822-4.38-.24a5.1 5.1 0 0 1-.872-1.266c-.542-.932-1.008-2.103-1.31-3.139-.396-1.353-.631-2.821-.275-4.206.656-2.55 3.732-3.005 5.844-1.199.203.172.509-.106.305-.279"/><path fill="#231F20" d="M93.526 232.034c-1.102-.927-3.651-2.158-4.643-.483-.132.223.241.422.374.199.823-1.392 3.085-.178 3.964.562.203.172.51-.105.305-.278"/><path fill="#231F20" d="M91.674 231.112c-1.063.793-1.294 2.093-.586 3.16.144.216.517.019.373-.199-.615-.927-.398-1.998.518-2.681.216-.161-.091-.438-.305-.28M131.548 227.726c1.97-1.684 5.204-1.254 5.844 1.199.353 1.355.095 2.877-.275 4.206a14 14 0 0 1-1.31 3.14l-.397.679q-1.319 2.684-4.855.827c-.038-.251-.455-.144-.417.104.235 1.54 1.744 1.988 3.243 1.423 2.378-.896 3.559-4.008 4.154-6.067.536-1.855.979-4.737-.703-6.256-1.645-1.487-4.116-.792-5.589.466-.204.174.102.452.305.279"/><path fill="#231F20" d="M131.446 232.312c.876-.737 3.14-1.955 3.964-.562.132.222.506.024.373-.199-.991-1.674-3.543-.443-4.643.483-.204.172.102.45.306.278"/><path fill="#231F20" d="M132.687 231.391c.917.683 1.133 1.755.519 2.682-.144.217.229.415.372.198.709-1.067.477-2.367-.586-3.159-.213-.159-.52.119-.305.279M118.669 229.954c.909 0 1.646-.672 1.646-1.5 0-.829-.737-1.501-1.646-1.501s-1.645.672-1.645 1.501.737 1.5 1.645 1.5M105.436 218.263l-.114 2.029s-7.236.67-7.236.555v-1.931zM103.981 229.954c.908 0 1.645-.672 1.645-1.5 0-.829-.737-1.501-1.645-1.501-.909 0-1.646.672-1.646 1.501s.737 1.5 1.646 1.5M135.383 215.705c-.491-1.438-1.782-2.725-3.417-2.932-1.573-.199-1.491-1.07-1.723-2.363-.452-2.523-1.875-4.854-3.789-6.722-1.915-1.867-4.305-3.29-6.838-4.385-1.159-.501-2.36-.939-3.615-1.18-1.9-.366-3.87-.273-5.804-.114-2.155.177-4.331.441-6.334 1.186-2.004.744-3.841 2.021-4.794 3.793-1.422 2.642-.241 5.39 1.849 7.328l.002.001a16 16 0 0 1 3.244-1.747c1.707-.677 3.589-.932 5.429-1.137 1.902-.212 3.835-.269 5.741-.057.553.061 1.087.205 1.631.273 1.513.189 2.98.631 4.341 1.259a16.27 16.27 0 0 1 6.765 5.827c2.579 3.913 3.268 8.412 3.236 12.925l.174.099c1.842-2.249 3.161-4.853 3.845-7.591.367-1.468.548-3.026.057-4.463"/><path fill="#231F20" d="M95.06 209.582c-1.016.882-1.625 2.084-2.076 3.296a17.65 17.65 0 0 0-.817 9.358c.37 1.985 1.082 3.932 1.101 5.944-.44-3.238.255-6.426 1.404-9.517 1.005-2.703 2.678-5.149 6.311-8.248.126-.107-1.836-1.809-2.359-1.964-1.167-.343-2.753.429-3.563 1.131M85.478 303.668v-11.326c0-.169-.288-.17-.288 0v11.326c0 .169.288.169.288 0M137.914 303.668v-11.326c0-.169-.289-.17-.289 0v11.326c0 .169.289.169.289 0M100.942 252.332s9.065 20.442 21.248 4.465l.206.121c.005-.147.119-3.436 1.854-5.187.014-.02-3.204 3.591-6.929 5.405.017-.01-4.608 2.729-5.624 2.425 0 0-7.627-2.473-10.755-7.229M128.05 238.989a5 5 0 0 0 2.133.196l.337-3.434c.498-5.098.998-10.218.655-15.327-.18.566-.43 1.142-.58 1.709-.14.524-.057 1.114-.062 1.657a50 50 0 0 1-.175 3.772 51 51 0 0 1-1.184 7.415c-.079.337-1.093 4.022-1.124 4.012"/><path fill="#231F20" d="M96.55 238.989c-.68.218-1.419.286-2.134.196l-.336-3.434c-.498-5.098-.998-10.218-.656-15.327.181.566.43 1.142.581 1.709.14.524.057 1.114.062 1.657q.016 1.889.175 3.772c.21 2.492.606 4.971 1.184 7.415.08.337 1.093 4.022 1.124 4.012"/></svg>
